X:1
T:The Unfortunat:e Rake -- Jig
R:jig
B:Ryan's Mammoth Collection
N: 89 467
Z: Contributed by Ray Davies,  ray:davies99.freeserve.co.uk
M:6/8
L:1/8
K:Em
uE|\
(EB).B BAG | FDF AGF | (EB).B BAG | FDF E2E |
(EB).B BAG | FDF AGF | GAB AdB | AGF E2:|
|:uB|\
(Be).e efg | fdB AGF | (Be).e efg | fdB d2B |
(Be).e efg | fdB AGF | GAB AdB | AGF E2:|
